svgs/duotone/newspaper.svg

<svg xmlns="http://www.w3.org/2000/svg" viewBox="0 0 512 512"><!--! Font Awesome Pro 6.6.0 by @fontawesome - https://fontawesome.com License - https://fontawesome.com/license (Commercial License) Copyright 2024 Fonticons, Inc. --><defs><style>.fa-secondary{opacity:.4}</style></defs><path class="fa-secondary" d="M48 480c26.5 0 48-21.5 48-48L96 96c0-35.3 28.7-64 64-64l288 0c35.3 0 64 28.7 64 64l0 320c0 35.3-28.7 64-64 64L96 480l-48 0zM160 120l0 80c0 13.3 10.7 24 24 24l112 0c13.3 0 24-10.7 24-24l0-80c0-13.3-10.7-24-24-24L184 96c-13.3 0-24 10.7-24 24zm0 184c0 8.8 7.2 16 16 16l256 0c8.8 0 16-7.2 16-16s-7.2-16-16-16l-256 0c-8.8 0-16 7.2-16 16zm0 96c0 8.8 7.2 16 16 16l256 0c8.8 0 16-7.2 16-16s-7.2-16-16-16l-256 0c-8.8 0-16 7.2-16 16zM368 112c0 8.8 7.2 16 16 16l48 0c8.8 0 16-7.2 16-16s-7.2-16-16-16l-48 0c-8.8 0-16 7.2-16 16zm0 96c0 8.8 7.2 16 16 16l48 0c8.8 0 16-7.2 16-16s-7.2-16-16-16l-48 0c-8.8 0-16 7.2-16 16z"/><path class="fa-primary" d="M0 160L0 432c0 26.5 21.5 48 48 48s48-21.5 48-48L96 96 64 96C28.7 96 0 124.7 0 160zM384 96c-8.8 0-16 7.2-16 16s7.2 16 16 16l48 0c8.8 0 16-7.2 16-16s-7.2-16-16-16l-48 0zm0 96c-8.8 0-16 7.2-16 16s7.2 16 16 16l48 0c8.8 0 16-7.2 16-16s-7.2-16-16-16l-48 0zM176 288c-8.8 0-16 7.2-16 16s7.2 16 16 16l256 0c8.8 0 16-7.2 16-16s-7.2-16-16-16l-256 0zm0 96c-8.8 0-16 7.2-16 16s7.2 16 16 16l256 0c8.8 0 16-7.2 16-16s-7.2-16-16-16l-256 0z"/></svg>

<svg xmlns="http://www.w3.org/2000/svg" viewBox="0 0 512 512"><!--! Font Awesome Pro 6.4.0 by @fontawesome - https://fontawesome.com License - https://fontawesome.com/license (Commercial License) Copyright 2023 Fonticons, Inc. --><defs><style>.fa-secondary{opacity:.4}</style></defs><path class="fa-primary" d="M0 160V432c0 26.5 21.5 48 48 48s48-21.5 48-48V96H64C28.7 96 0 124.7 0 160zM384 96c-8.8 0-16 7.2-16 16s7.2 16 16 16h48c8.8 0 16-7.2 16-16s-7.2-16-16-16H384zm0 96c-8.8 0-16 7.2-16 16s7.2 16 16 16h48c8.8 0 16-7.2 16-16s-7.2-16-16-16H384zM176 288c-8.8 0-16 7.2-16 16s7.2 16 16 16H432c8.8 0 16-7.2 16-16s-7.2-16-16-16H176zm0 96c-8.8 0-16 7.2-16 16s7.2 16 16 16H432c8.8 0 16-7.2 16-16s-7.2-16-16-16H176z"/><path class="fa-secondary" d="M96 96c0-35.3 28.7-64 64-64H448c35.3 0 64 28.7 64 64V416c0 35.3-28.7 64-64 64H96 48c26.5 0 48-21.5 48-48V96zm64 24v80c0 13.3 10.7 24 24 24H296c13.3 0 24-10.7 24-24V120c0-13.3-10.7-24-24-24H184c-13.3 0-24 10.7-24 24zm208-8c0 8.8 7.2 16 16 16h48c8.8 0 16-7.2 16-16s-7.2-16-16-16H384c-8.8 0-16 7.2-16 16zm0 96c0 8.8 7.2 16 16 16h48c8.8 0 16-7.2 16-16s-7.2-16-16-16H384c-8.8 0-16 7.2-16 16zM160 304c0 8.8 7.2 16 16 16H432c8.8 0 16-7.2 16-16s-7.2-16-16-16H176c-8.8 0-16 7.2-16 16zm0 96c0 8.8 7.2 16 16 16H432c8.8 0 16-7.2 16-16s-7.2-16-16-16H176c-8.8 0-16 7.2-16 16z"/></svg>
